X:1
T:Title
%%score { ( 1 3 ) | ( 2 4 ) }
L:1/8
M:6/8
K:C
V:1 treble nm="Grand Piano"
V:3 treble 
V:2 bass 
V:4 bass 
V:1
 z3 z2[Q:1/4=99] [EG] | [EG]>[CE][DF] [EG][Ec][FA] | [EG][CE][DF] [EG]2 [Ec] | B>BB BAB | %4
 [Ec][GB][FA] [EG]2 [EG] | [EG]>[CE][DF] [EG][Ec][FA] | [EG][CE][DF] [EG]2 [Ec] | %7
 B>GB [^Fd]<[Fc][FA] |[M:5/8] G-G- G3 |[M:1/8] G |[M:3/4] [EG]>[EG] [EG][EG]/[_E^F]/- [EF][=FA] | %11
 [EG]4- [EG][Gc] | B>A GF/G/- GF | E4- E[EG] | A>A A[Ac] [GB][FA] | %15
 [EG][CE] [DF][EG]/[Gc]/- [Gc][Ad] | e>c GB/c/- cd |[M:5/8] [Ec]-[Ec]- [Ec]3 |] %18
V:2
 z3 z2 [C,C] | [C,C]>[C,G,][C,G,] [C,C][C,G,][C,A,] | [C,C][C,G,][C,G,] [C,C]2 [C,C] | %3
 [G,DF]>[G,DF][G,DF] [G,DF][G,CF][G,F] | [C,G,][C,G,][C,A,] [C,C]2 [C,C] | %5
 [C,C]>[C,G,][C,G,] [C,C][C,G,][C,A,] | [C,C][C,G,][C,G,] [C,C]2 [C,G,] | %7
 [D,G,D]>[D,B,D][D,G,D] [D,A,]<[D,D][D,C] |[M:5/8] .[B,D] z z z2 |[M:1/8] [G,B,F] | %10
[M:3/4] [C,C]>[C,C] [C,C][C,C]/[C,C]/- [C,C][C,C] | [C,C]4- [C,C][E,C] | %12
 [G,DF]>[G,CF] [G,B,E][G,B,D]/[G,CE]/- [G,CE][K:bass][G,D] | [C,G,C]4- [C,G,C][C,C] | %14
 [F,CF]>[F,CF] [F,CF][F,F] [F,F][F,C] | [C,C][C,G,] [C,G,][C,C]/[E,C]/- [E,C][F,C] | %16
 [G,CG]>[G,CE] [G,CE][G,DF]/[G,CE]/- [G,CE][G,B,F] |[M:5/8][K:bass] [C,G,C]-[C,G,C]- [C,G,C]3 |] %18
V:3
 x6 | x6 | x6 | x6 | x6 | x6 | x6 | x6 |[M:5/8] z/ D3/2E F2 |[M:1/8] x |[M:3/4] x6 | x6 | x6 | x6 | %14
 x6 | x6 | x6 |[M:5/8] x5 |] %18
V:4
 x6 | x6 | x6 | x6 | x6 | x6 | x6 | x6 |[M:5/8] G,-<[G,-B,][G,-C] [G,D]2 |[M:1/8] x |[M:3/4] x6 | %11
 x6 | x5[K:bass] x | x6 | x6 | x6 | x6 |[M:5/8][K:bass] x5 |] %18

